X:1
T:Title
%%score { ( 1 4 ) | ( 2 3 ) }
L:1/8
Q:1/4=87
M:6/8
K:Bb
V:1 treble nm="Grand Piano"
V:4 treble 
V:2 bass 
V:3 bass 
V:1
 [DF]>[EG][DF] [Fd][Ge][Fd] | cGA [DB]2 [DB] | B>AB cBG |[M:5/8] [DF]-[DF]- [DF]3 |[M:1/8] [DF] | %5
w: J.~B.~Mackay * * * * *|||||
[M:3/4] [DF][B,D] [CE] [DF]2 [DF] | [FB]2 [FA] [EG]2 [EG] | [=Ec][Ec] [EB] [EA]2 [EG] | F6 | %9
w: ||||
 [DF]>[DB] [DB] [DB]3 | F>c c c3 | B>B B [=EA]2 [EB] |[M:5/8] c-c- c3 |[M:1/8] F/F/ | %14
w: |||||
[M:3/4] [DF][Fd] [Ec] [DB]2 [FA]/[FB]/ | c3 G2 A/G/ | F>=E F G2 A | [DB]6 |] %18
w: ||||
V:2
 [B,,B,]>[B,,B,][B,,B,] [B,,B,][B,,B,][B,,B,] | .A,3 z3 | %2
 [E,G,E]>[E,G,E][E,G,E] [E,G,E][E,G,E][E,B,E] |[M:5/8] [B,,B,]-[B,,B,]- [B,,B,]3 |[M:1/8] [B,,B,] | %5
[M:3/4] [B,,B,][B,,F,] [B,,F,] [B,,B,]2 [B,,B,] | [D,B,]2 [D,B,] [E,B,]2 [E,G,] | %7
 [C,G,][C,G,] [C,G,] [C,C]2 [C,B,] | F,2- [F,-B,] [F,C]3 | [B,,B,]>[B,,B,] [B,,B,] [B,,B,]3 | %10
 [F,A,E]>[F,A,E] [F,A,E] [F,A,E]3 | [G,B,D]>[G,B,D] [G,B,D] [C,C]2 [C,G,] | %12
[M:5/8] [F,A,E]-[F,A,E]- [F,A,E]3 |[M:1/8] [F,A,E]/[F,A,E]/ | %14
[M:3/4] [B,,B,][B,,B,] [B,,F,] [B,,F,]2 [C,F,]/[D,F,]/ | [E,G,E]3 [E,B,E]2 [E,B,F]/[E,B,E]/ | %16
 [F,B,D]>[F,B,_D] [F,B,=D] [F,A,E]2 [F,E] | [B,,F,]6 |] %18
V:3
 x6 | [F,E]-[F,B,E][F,CE] [B,,B,]2 [B,,B,] | x6 |[M:5/8] x5 |[M:1/8] x |[M:3/4] x6 | x6 | x6 | %8
 A,2 z2 z2 | x6 | x6 | x6 |[M:5/8] x5 |[M:1/8] x |[M:3/4] x6 | x6 | x6 | x6 |] %18
V:4
 x6 | x6 | x6 |[M:5/8] x5 |[M:1/8] x |[M:3/4] x6 | x6 | x6 | z2 D E3 | x6 | x6 | x6 |[M:5/8] x5 | %13
[M:1/8] x |[M:3/4] x6 | x6 | x6 | x6 |] %18

